X:581
T:Muckin o' Geordie's Byre, The
S:Sessions, etc
Z:Nigel Gatherer
L:1/8
M:6/8
K:D
       ABA AFA | d2e f2a | g2e f2d |  efd B2d  |  
       ABA AFA | d2e f2g | afd efe |1 d3  dcB :|
                                    2 d3      ||
def |  g2g gag | f2f faf | e2e efg |  fed B2d  |
       ABA AFA | d2e f2g | afd efe |  d3     :|]
<end>
<start>
